X:2937
L:1/16
M:4/4
K:D
 ^A4 |: ABAF D2D2 DEFG ABAF | E2>=c2 ^cBAF EEFA c2>B2 | AFEE FA A2>B2 A2 F2>F2 |1 E4 D8 A4 :|2 
 E4 D12!fine! || D2>D2 F2A2 d8 | f6 a2>f2 edBA E6- | E2=c2 cBAF EEFA c2>B2 | 
 AFEE2 FA A2>B2 A2 F2>F2 | E4 D12 | D2>D2 F2A2 d8 | f6 a2>f2 edBA G6 | E2>=c2 cBAF EE2FA c2>B2 | 
 AFEE2 FA A2>B2 A2 F2>F2 | E4 D12!D.C.! ||

